flaticon/security/security-camera-1.svg

<svg xmlns="http://www.w3.org/2000/svg" width="32" height="32" viewBox="0 0 24 24">
    <path d="M 22.765625 12.800781 L 22.039062 12.800781 C 21.355469 12.800781 20.804688 13.351562 20.804688 14.035156 L 20.804688 15.597656 L 16.804688 15.597656 L 16.804688 13.113281 C 18.265625 12.640625 19.1875 10.691406 19.1875 8.003906 C 19.1875 5.113281 18.121094 3.074219 16.46875 2.8125 C 16.449219 2.808594 16.429688 2.808594 16.40625 2.808594 L 0.421875 2.808594 C 0.226562 2.808594 0.0625 2.945312 0.0273438 3.132812 C 0.0195312 3.175781 -0.160156 4.191406 0.523438 5.019531 C 0.980469 5.566406 1.691406 5.886719 2.640625 5.976562 C 2.496094 6.609375 2.417969 7.296875 2.417969 8.003906 C 2.417969 10.917969 3.648438 13.199219 5.214844 13.199219 L 13.609375 13.199219 L 13.609375 18.382812 C 13.609375 19.050781 14.152344 19.59375 14.820312 19.59375 L 15.59375 19.59375 C 16.117188 19.59375 16.558594 19.257812 16.730469 18.792969 L 20.804688 18.792969 L 20.804688 19.957031 C 20.804688 20.640625 21.355469 21.191406 22.039062 21.191406 L 22.765625 21.191406 C 23.445312 21.191406 24 20.640625 24 19.957031 L 24 14.035156 C 24 13.351562 23.445312 12.800781 22.765625 12.800781 Z M 16.371094 3.605469 C 17.332031 3.78125 18.285156 5.078125 18.378906 7.605469 L 10.175781 7.605469 L 8.695312 6.121094 C 8.621094 6.046875 8.519531 6.003906 8.414062 6.003906 L 5.453125 6.003906 C 5.449219 6 5.445312 5.992188 5.441406 5.988281 C 5.402344 5.921875 5.355469 5.855469 5.308594 5.789062 C 5.28125 5.753906 5.25 5.71875 5.222656 5.683594 C 5.207031 5.667969 5.195312 5.648438 5.179688 5.632812 C 5.164062 5.613281 5.148438 5.597656 5.132812 5.578125 C 5.113281 5.558594 5.101562 5.539062 5.082031 5.519531 C 5.074219 5.511719 5.066406 5.503906 5.058594 5.496094 C 5.015625 5.449219 4.96875 5.402344 4.917969 5.351562 C 4.886719 5.320312 4.855469 5.289062 4.824219 5.257812 C 4.742188 5.183594 4.660156 5.109375 4.570312 5.035156 C 4.496094 4.976562 4.421875 4.917969 4.347656 4.859375 C 4.3125 4.832031 4.277344 4.804688 4.242188 4.777344 C 3.636719 4.324219 2.9375 3.925781 2.304688 3.605469 Z M 5.617188 7.46875 C 5.617188 8.304688 5.375 8.859375 5.214844 9.097656 C 5.054688 8.855469 4.816406 8.304688 4.816406 7.46875 C 4.816406 7.148438 4.851562 6.875 4.898438 6.648438 C 4.902344 6.652344 4.90625 6.652344 4.90625 6.65625 C 4.941406 6.695312 4.980469 6.730469 5.027344 6.753906 C 5.039062 6.757812 5.046875 6.761719 5.058594 6.765625 C 5.109375 6.789062 5.160156 6.804688 5.214844 6.804688 L 5.5625 6.804688 C 5.597656 7.015625 5.617188 7.242188 5.617188 7.46875 Z M 1.144531 4.515625 C 0.953125 4.285156 0.867188 4.027344 0.828125 3.804688 C 1.429688 4.066406 2.230469 4.449219 2.96875 4.890625 C 2.929688 4.988281 2.894531 5.089844 2.859375 5.195312 C 2.058594 5.144531 1.480469 4.914062 1.144531 4.515625 Z M 3.21875 8.003906 C 3.21875 7.035156 3.371094 6.105469 3.652344 5.335938 C 3.660156 5.34375 3.667969 5.347656 3.675781 5.355469 C 3.921875 5.53125 4.128906 5.707031 4.304688 5.875 C 4.164062 6.21875 4.015625 6.753906 4.015625 7.46875 C 4.015625 8.820312 4.578125 10 5.214844 10 C 5.855469 10 6.414062 8.820312 6.414062 7.46875 C 6.414062 7.242188 6.394531 7.019531 6.363281 6.804688 L 7.132812 6.804688 C 7.1875 7.199219 7.214844 7.601562 7.214844 8.003906 C 7.214844 10.480469 6.140625 12.398438 5.214844 12.398438 C 4.269531 12.398438 3.21875 10.59375 3.21875 8.003906 Z M 6.683594 12.398438 C 6.695312 12.386719 6.707031 12.371094 6.714844 12.355469 C 6.792969 12.265625 6.867188 12.164062 6.9375 12.058594 C 6.949219 12.042969 6.960938 12.027344 6.972656 12.007812 C 7.054688 11.882812 7.132812 11.75 7.207031 11.609375 C 7.226562 11.570312 7.246094 11.53125 7.265625 11.492188 C 7.320312 11.382812 7.371094 11.273438 7.417969 11.15625 C 7.4375 11.105469 7.460938 11.054688 7.480469 11.003906 C 7.527344 10.882812 7.570312 10.757812 7.613281 10.628906 C 7.625 10.585938 7.640625 10.546875 7.65625 10.503906 C 7.707031 10.332031 7.753906 10.15625 7.796875 9.972656 C 7.804688 9.9375 7.8125 9.898438 7.820312 9.863281 C 7.851562 9.714844 7.878906 9.5625 7.902344 9.410156 C 7.914062 9.347656 7.921875 9.285156 7.929688 9.222656 C 7.949219 9.082031 7.964844 8.941406 7.976562 8.796875 C 7.980469 8.738281 7.988281 8.675781 7.992188 8.617188 C 8.003906 8.414062 8.015625 8.210938 8.015625 8.003906 L 8.015625 6.804688 L 8.25 6.804688 L 9.730469 8.285156 C 9.804688 8.359375 9.90625 8.402344 10.011719 8.402344 L 18.378906 8.402344 C 18.289062 10.929688 17.332031 12.226562 16.375 12.398438 Z M 15.59375 18.792969 L 14.820312 18.792969 C 14.59375 18.792969 14.40625 18.609375 14.40625 18.382812 L 14.40625 13.199219 L 16.007812 13.199219 L 16.007812 18.382812 C 16.007812 18.609375 15.820312 18.792969 15.59375 18.792969 Z M 16.804688 17.996094 L 16.804688 16.394531 L 20.800781 16.394531 L 20.800781 17.996094 Z M 23.199219 19.957031 C 23.199219 20.199219 23.003906 20.394531 22.765625 20.394531 L 22.039062 20.394531 C 21.796875 20.394531 21.601562 20.199219 21.601562 19.957031 L 21.601562 14.035156 C 21.601562 13.792969 21.796875 13.597656 22.039062 13.597656 L 22.765625 13.597656 C 23.003906 13.597656 23.199219 13.792969 23.199219 14.035156 Z M 23.199219 19.957031"/>
    <path d="M13.210938 10.800781C13.210938 11.023438 13.03125 11.199219 12.808594 11.199219 12.589844 11.199219 12.410156 11.023438 12.410156 10.800781 12.410156 10.582031 12.589844 10.402344 12.808594 10.402344 13.03125 10.402344 13.210938 10.582031 13.210938 10.800781zM11.609375 10.800781C11.609375 11.023438 11.429688 11.199219 11.210938 11.199219 10.988281 11.199219 10.8125 11.023438 10.8125 10.800781 10.8125 10.582031 10.988281 10.402344 11.210938 10.402344 11.429688 10.402344 11.609375 10.582031 11.609375 10.800781zM10.011719 10.800781C10.011719 11.023438 9.832031 11.199219 9.613281 11.199219 9.390625 11.199219 9.210938 11.023438 9.210938 10.800781 9.210938 10.582031 9.390625 10.402344 9.613281 10.402344 9.832031 10.402344 10.011719 10.582031 10.011719 10.800781zM10.011719 10.800781"/>
</svg>

<svg xmlns="http://www.w3.org/2000/svg" width="32" height="32" viewBox="0 0 24 24">
    <path d="M22.766 12.8h-.727c-.684 0-1.234.552-1.234 1.235v1.563h-4v-2.485c1.46-.472 2.383-2.422 2.383-5.11 0-2.89-1.067-4.929-2.72-5.19-.019-.004-.038-.004-.062-.004H.422a.399.399 0 0 0-.395.324C.02 3.176-.16 4.19.523 5.02c.457.546 1.168.867 2.118.957a9.16 9.16 0 0 0-.223 2.027c0 2.914 1.23 5.195 2.797 5.195h8.394v5.184c0 .668.543 1.21 1.211 1.21h.774c.523 0 .965-.335 1.136-.8h4.075v1.164c0 .684.55 1.234 1.234 1.234h.727c.68 0 1.234-.55 1.234-1.234v-5.922c0-.683-.555-1.234-1.234-1.234zM16.37 3.606c.961.176 1.914 1.473 2.008 4h-8.203l-1.48-1.484a.4.4 0 0 0-.282-.117h-2.96c-.005-.004-.009-.012-.013-.016-.039-.066-.086-.133-.132-.199-.028-.035-.059-.07-.086-.105-.016-.016-.028-.036-.043-.051-.016-.02-.032-.035-.047-.055-.02-.02-.031-.039-.051-.058l-.023-.024c-.043-.047-.09-.094-.141-.144l-.094-.094c-.082-.074-.164-.149-.254-.223l-.222-.176-.106-.082c-.605-.453-1.304-.851-1.937-1.172zM5.617 7.47c0 .836-.242 1.39-.402 1.629-.16-.243-.399-.793-.399-1.63 0-.32.036-.593.082-.82.004.004.008.004.008.008.035.04.074.074.121.098l.032.012a.37.37 0 0 0 .156.039h.348c.035.21.054.437.054.664zM1.145 4.516a1.503 1.503 0 0 1-.317-.711c.602.261 1.402.644 2.14 1.086-.038.097-.073.199-.109.304-.8-.05-1.379-.28-1.714-.68zm2.074 3.488c0-.969.152-1.899.433-2.668.008.008.016.012.024.02.246.175.453.351.629.519-.14.344-.29.879-.29 1.594 0 1.351.563 2.531 1.2 2.531.64 0 1.2-1.18 1.2-2.531 0-.227-.02-.45-.052-.664h.77c.054.394.082.797.082 1.199 0 2.476-1.074 4.394-2 4.394-.945 0-1.996-1.804-1.996-4.394zm3.465 4.394a.173.173 0 0 0 .03-.043 2.94 2.94 0 0 0 .259-.347c.082-.125.16-.258.234-.399l.059-.117c.054-.11.105-.219.152-.336.02-.05.043-.101.062-.152.047-.121.09-.246.133-.375.012-.043.028-.082.043-.125.051-.172.098-.348.14-.531.009-.036.016-.075.024-.11.032-.148.059-.3.082-.453.012-.062.02-.125.028-.187.02-.141.035-.282.047-.426.003-.059.011-.121.015-.18.012-.203.024-.406.024-.613v-1.2h.234l1.48 1.481a.4.4 0 0 0 .282.117h8.367c-.09 2.528-1.047 3.825-2.004 3.996zm8.91 6.395h-.774a.413.413 0 0 1-.414-.41v-5.184h1.602v5.184c0 .226-.188.41-.414.41zm1.21-.797v-1.601h3.997v1.601zm6.395 1.961a.436.436 0 0 1-.433.438h-.727a.437.437 0 0 1-.437-.438v-5.922c0-.242.195-.437.437-.437h.727c.238 0 .433.195.433.437zm0 0"/>
    <path d="M13.21 10.8c0 .223-.179.4-.401.4a.398.398 0 1 1 0-.798c.222 0 .402.18.402.399zm0 0M11.61 10.8c0 .223-.18.4-.4.4a.395.395 0 0 1-.398-.4.398.398 0 1 1 .797 0zm0 0M10.012 10.8c0 .223-.18.4-.399.4a.398.398 0 1 1 0-.798.4.4 0 0 1 .399.399zm0 0"/>
</svg>
